public/boxMode.svg

<svg fill="none" height="32" viewBox="0 0 48 32" width="48" xmlns="http://www.w3.org/2000/svg"><g stroke="#265db6" stroke-width="2.5"><path d="m2.93396 9.24989s-.44565 21.00011.83693 21.00011h40.59101c1.2191 0 .8369-21.00011.8369-21.00011m-42.26484 0h42.26484m-42.26484 0-1.25539-.525s-.964285-6.32104 0-6.85654c.96429-.5355 43.87513-1.071014 44.35723 0 .482 1.07101 0 6.85654 0 6.85654l-.837.525"/><path d="m28.4684 15.25h-9.4368c-1.4155 1.2-.5898 2.5 0 3h9.4368c1.4156-1.2.5898-2.5 0-3z"/></g></svg>

<svg width="48" height="32" viewBox="0 0 48 32" fill="none" xmlns="http://www.w3.org/2000/svg">
<path d="M2.93396 9.24989C2.93396 9.24989 2.48831 30.25 3.77089 30.25C5.05347 30.25 43.1428 30.25 44.3619 30.25C45.581 30.25 45.1988 9.24989 45.1988 9.24989M2.93396 9.24989H45.1988M2.93396 9.24989L1.67857 8.72489C1.67857 8.72489 0.714285 2.40385 1.67857 1.86835C2.64286 1.33285 45.5537 0.797336 46.0358 1.86835C46.5178 2.93936 46.0358 8.72489 46.0358 8.72489L45.1988 9.24989" stroke="#265DB6" stroke-width="2.5"/>
<path d="M28.4684 15.25H19.0316C17.6161 16.45 18.4418 17.75 19.0316 18.25H28.4684C29.884 17.05 29.0582 15.75 28.4684 15.25Z" stroke="#265DB6" stroke-width="2.5"/>
</svg>
